public/flags/BM.svg

<svg fill="none" height="53" viewBox="0 0 61 53" width="61" xmlns="http://www.w3.org/2000/svg" xmlns:xlink="http://www.w3.org/1999/xlink"><linearGradient id="a" gradientUnits="userSpaceOnUse" x1="38.9287" x2="38.9287" y1="20" y2="25.6667"><stop offset="0" stop-color="#e20b0c"/><stop offset="1" stop-color="#d40001"/></linearGradient><linearGradient id="b" gradientUnits="userSpaceOnUse" x1="1" x2="1" y1="3" y2="22.8333"><stop offset="0" stop-color="#db1e36"/><stop offset="1" stop-color="#d51931"/></linearGradient><mask id="c" height="43" maskUnits="userSpaceOnUse" width="59" x="1" y="3"><rect fill="#fff" height="42.5" rx="4.24286" width="59" x="1" y="3"/></mask><mask id="d" height="15" maskUnits="userSpaceOnUse" width="12" x="37" y="17"><path clip-rule="evenodd" d="m37.5239 24.25c0-4.25 0-7.0833 0-7.0833h5.6191 5.619v7.0833c0 4.25-5.619 7.0833-5.619 7.0833s-5.6191-2.8333-5.6191-7.0833z" fill="#fff" fill-rule="evenodd"/></mask><rect fill="#fff" height="42.5" rx="4.24286" width="59" x="1" y="3"/><g mask="url(#c)"><path d="m1 3h59v42.5h-59z" fill="#dc1f37"/><path d="m1 3h25.2857v19.8333h-25.2857z" fill="#042c90"/><path clip-rule="evenodd" d="m37.5239 24.25c0-4.25 0-7.0833 0-7.0833h5.6191 5.619v7.0833c0 4.25-5.619 7.0833-5.619 7.0833s-5.6191-2.8333-5.6191-7.0833z" fill="#fff" fill-rule="evenodd"/><g mask="url(#d)"><path clip-rule="evenodd" d="m43.143 28.5c1.5517 0 2.8095-1.2685 2.8095-2.8334 0-1.5648-1.2578-2.8333-2.8095-2.8333-1.5516 0-2.8095 1.2685-2.8095 2.8333 0 1.5649 1.2579 2.8334 2.8095 2.8334z" fill="#65b5d2" fill-rule="evenodd"/><path clip-rule="evenodd" d="m43.143 22.8333c.7758 0 1.4047-.6342 1.4047-1.4166s-.6289-1.4167-1.4047-1.4167c-.7759 0-1.4048.6343-1.4048 1.4167s.6289 1.4166 1.4048 1.4166zm-2.8095 2.8334c.7758 0 1.4047-.6343 1.4047-1.4167s-.6289-1.4167-1.4047-1.4167c-.7759 0-1.4048.6343-1.4048 1.4167s.6289 1.4167 1.4048 1.4167zm7.0238-1.4167c0 .7824-.6289 1.4167-1.4048 1.4167-.7758 0-1.4047-.6343-1.4047-1.4167s.6289-1.4167 1.4047-1.4167c.7759 0 1.4048.6343 1.4048 1.4167z" fill="url(#a)" fill-rule="evenodd"/><path d="m37.5239 28.5h11.2381v2.83333h-11.2381z" fill="#2f8f22"/></g><path d="m1 2.29286h-1.899402l1.436963 1.24212 9.588639 8.28852v2.1477l-9.539515 6.8717-.293828.2116v.3622 1.4166 1.2816l1.084203-.6833 11.06534-6.9745h2.377l9.526 6.862c.1998.1439.4399.2214.6862.2214 1.0876 0 1.5906-1.3511.7678-2.0623l-8.6399-7.4683v-2.1478l9.2457-6.66c.369-.26579.5877-.6928.5877-1.14756v-1.05454-1.2816l-1.0842.68337-11.0653 6.97442h-2.3771l-9.64822-6.94997-.18514-.13336h-.22818z" fill="#db1e36" stroke="#fff" stroke-width="1.41429"/><g clip-rule="evenodd" fill-rule="evenodd"><path d="m1 10.0833v5.6667h9.8333v7.0857c0 .7811.6332 1.4143 1.4143 1.4143h2.7905c.7811 0 1.4143-.6332 1.4143-1.4143v-7.0857h9.8238c.7811 0 1.4143-.6332 1.4143-1.4143v-2.8381c0-.7811-.6332-1.4143-1.4143-1.4143h-9.8238v-7.0833h-5.6191v7.0833z" fill="#fff"/><path d="m1 11.5h11.2381v-1.4167-7.0833h2.8095v7.0833 1.4167h11.2381v2.8333h-11.2381v1.4167 7.0833h-2.8095v-7.0833-1.4167h-11.2381z" fill="url(#b)"/></g></g></svg>

<svg width="61" height="53" viewBox="0 0 61 53" fill="none" xmlns="http://www.w3.org/2000/svg">
<rect x="1" y="3" width="59" height="42.5" rx="4.24286" fill="white"/>
<mask id="mask0" mask-type="alpha" maskUnits="userSpaceOnUse" x="1" y="3" width="59" height="43">
<rect x="1" y="3" width="59" height="42.5" rx="4.24286" fill="white"/>
</mask>
<g mask="url(#mask0)">
<rect x="1" y="3" width="59" height="42.5" fill="#DC1F37"/>
<rect x="1" y="3" width="25.2857" height="19.8333" fill="#042C90"/>
<path fill-rule="evenodd" clip-rule="evenodd" d="M37.5239 24.25C37.5239 20 37.5239 17.1667 37.5239 17.1667H43.143H48.762C48.762 17.1667 48.762 20 48.762 24.25C48.762 28.5 43.143 31.3333 43.143 31.3333C43.143 31.3333 37.5239 28.5 37.5239 24.25Z" fill="white"/>
<mask id="mask1" mask-type="alpha" maskUnits="userSpaceOnUse" x="37" y="17" width="12" height="15">
<path fill-rule="evenodd" clip-rule="evenodd" d="M37.5239 24.25C37.5239 20 37.5239 17.1667 37.5239 17.1667H43.143H48.762C48.762 17.1667 48.762 20 48.762 24.25C48.762 28.5 43.143 31.3333 43.143 31.3333C43.143 31.3333 37.5239 28.5 37.5239 24.25Z" fill="white"/>
</mask>
<g mask="url(#mask1)">
<path fill-rule="evenodd" clip-rule="evenodd" d="M43.143 28.5C44.6947 28.5 45.9525 27.2315 45.9525 25.6666C45.9525 24.1018 44.6947 22.8333 43.143 22.8333C41.5914 22.8333 40.3335 24.1018 40.3335 25.6666C40.3335 27.2315 41.5914 28.5 43.143 28.5Z" fill="#65B5D2"/>
<path fill-rule="evenodd" clip-rule="evenodd" d="M43.143 22.8333C43.9188 22.8333 44.5477 22.1991 44.5477 21.4167C44.5477 20.6343 43.9188 20 43.143 20C42.3671 20 41.7382 20.6343 41.7382 21.4167C41.7382 22.1991 42.3671 22.8333 43.143 22.8333ZM40.3335 25.6667C41.1093 25.6667 41.7382 25.0324 41.7382 24.25C41.7382 23.4676 41.1093 22.8333 40.3335 22.8333C39.5576 22.8333 38.9287 23.4676 38.9287 24.25C38.9287 25.0324 39.5576 25.6667 40.3335 25.6667ZM47.3573 24.25C47.3573 25.0324 46.7284 25.6667 45.9525 25.6667C45.1767 25.6667 44.5478 25.0324 44.5478 24.25C44.5478 23.4676 45.1767 22.8333 45.9525 22.8333C46.7284 22.8333 47.3573 23.4676 47.3573 24.25Z" fill="url(#paint0_linear)"/>
<rect x="37.5239" y="28.5" width="11.2381" height="2.83333" fill="#2F8F22"/>
</g>
<path d="M1 2.29286H-0.899402L0.537561 3.53498L10.1262 11.8235V13.9712L0.586685 20.8429L0.292857 21.0545V21.4167V22.8333V24.1149L1.37706 23.4316L12.4424 16.4571H14.8194L24.3454 23.3191C24.5452 23.463 24.7853 23.5405 25.0316 23.5405C26.1192 23.5405 26.6222 22.1894 25.7994 21.4782L17.1595 14.0099V11.8621L26.4052 5.2021C26.7742 4.93631 26.9929 4.5093 26.9929 4.05454V3V1.7184L25.9087 2.40177L14.8434 9.37619H12.4663L2.81808 2.42622L2.63294 2.29286H2.40476H1Z" fill="#DB1E36" stroke="white" stroke-width="1.41429"/>
<path fill-rule="evenodd" clip-rule="evenodd" d="M1 10.0833V15.75H10.8333V22.8357C10.8333 23.6168 11.4665 24.25 12.2476 24.25H15.0381C15.8192 24.25 16.4524 23.6168 16.4524 22.8357V15.75H26.2762C27.0573 15.75 27.6905 15.1168 27.6905 14.3357V11.4976C27.6905 10.7165 27.0573 10.0833 26.2762 10.0833H16.4524V3H10.8333V10.0833H1Z" fill="white"/>
<path fill-rule="evenodd" clip-rule="evenodd" d="M1 11.5H12.2381V10.0833V3H15.0476V10.0833V11.5H26.2857V14.3333H15.0476V15.75V22.8333H12.2381V15.75V14.3333H1V11.5Z" fill="url(#paint1_linear)"/>
</g>
<defs>
<linearGradient id="paint0_linear" x1="38.9287" y1="20" x2="38.9287" y2="25.6667" gradientUnits="userSpaceOnUse">
<stop stop-color="#E20B0C"/>
<stop offset="1" stop-color="#D40001"/>
</linearGradient>
<linearGradient id="paint1_linear" x1="1" y1="3" x2="1" y2="22.8333" gradientUnits="userSpaceOnUse">
<stop stop-color="#DB1E36"/>
<stop offset="1" stop-color="#D51931"/>
</linearGradient>
</defs>
</svg>
